src/assets/emoji/noto-emoji/1F5B1.svg

<svg enable-background="new 0 0 128 128" viewBox="0 0 128 128" xmlns="http://www.w3.org/2000/svg" xmlns:xlink="http://www.w3.org/1999/xlink"><linearGradient id="b" x1="-93.047" x2="-93.047" y1="-73.413" y2="-17.291" gradientUnits="userSpaceOnUse"><stop stop-color="#eee" offset=".0051299"/><stop stop-color="#EAEAEA" offset=".2817"/><stop stop-color="#ddd" offset=".5766"/><stop stop-color="#C8C8C8" offset=".8789"/><stop stop-color="#BDBDBD" offset=".9998"/></linearGradient><path d="m-42.13-44.72c-0.91-4.33-4.3-20.11-5.87-27.41-0.47-2.21-2.11-3.82-3.99-3.81-5.36 0-15.39-0.05-16.6-0.05h-44.08c-0.61 0-2.56 0.06-4.11 1.79-4.7 5.27-12.54 20.52-13.76 22.07-0.08 0.1-6.27 2.31-9.09 4-1.12 0.67-1.74 2.13-1.9 3.63l-2.46 20.75c-0.64 4.1 1.7 5.76 5.37 5.76h91.51c2.8 0 5.11-0.68 5.11-5.69v-19.79c0-0.43-0.05-0.85-0.13-1.25z" fill="url(#b)"/><defs><path id="c" d="m-42.13-44.78c-0.91-4.32-4.3-20.06-5.87-27.34-0.47-2.21-2.11-3.82-3.99-3.82-5.36 0-15.39-0.06-16.6-0.06h-44.08c-0.61 0-2.56 0.07-4.11 1.8-4.7 5.26-12.54 20.51-13.76 22.05-0.08 0.1-6.27 2.28-9.09 3.96-1.12 0.67-1.74 2.13-1.9 3.62l-2.46 20.76c-0.64 4.09 1.7 5.81 5.37 5.81h91.51c2.8 0 5.11-0.79 5.11-5.8v-19.74c0-0.42-0.05-0.83-0.13-1.24z"/></defs><clipPath><use xlink:href="#c"/></clipPath><g opacity=".2"><path d="m-51.98-73c0.36 0 0.87 0.59 1.05 1.44 1.46 6.78 4.95 23.06 5.86 27.43 0.04 0.2 0.07 0.44 0.07 0.66v19.79c0 2.81-0.49 2.69-2.11 2.69h-91.51c-1.3 0-2.02-0.23-2.25-0.5s-0.3-0.92-0.16-1.77c0.01-0.04 0.01-0.06 0.02-0.09l2.47-20.83c0.08-0.8 0.36-1.28 0.46-1.36 1.87-1.12 5.83-2.66 7.51-3.31 1.46-0.57 1.86-0.72 2.39-1.39 0.5-0.63 1.28-2 2.99-5.03 2.85-5.03 7.61-13.53 10.65-16.93 0.57-0.64 1.22-0.79 1.87-0.79h44.08 9.21 7.4-0.02m0.02-3.01s-0.01 0 0 0h-16.6-44.08-0.02c-0.63 0-2.55 0.08-4.08 1.79-4.7 5.27-12.54 20.52-13.76 22.07-0.08 0.1-6.27 2.31-9.09 4-1.12 0.67-1.74 2.13-1.9 3.63l-2.46 20.75c-0.64 4.1 1.7 5.76 5.37 5.76h91.51c2.8 0 5.11-0.68 5.11-5.69v-19.79c0-0.42-0.05-0.84-0.13-1.24-0.91-4.33-4.3-20.17-5.87-27.47-0.49-2.21-2.13-3.81-4-3.81z" fill="#424242"/></g><linearGradient id="a" x1="46.43" x2="46.43" y1="-117.5" y2="-61.374" gradientUnits="userSpaceOnUse"><stop stop-color="#616161" offset=".0106"/><stop stop-color="#5D5D5D" offset=".2496"/><stop stop-color="#505050" offset=".5044"/><stop stop-color="#3B3B3B" offset=".7657"/><stop stop-color="#212121" offset="1"/></linearGradient><path d="m97.35-88.93c-0.91-4.33-4.3-20.11-5.86-27.41-0.47-2.21-2.11-3.75-3.99-3.75-5.36 0-15.39 0.01-16.6 0.01h-44.08c-0.61 0-2.56-0.01-4.11 1.73-4.71 5.28-12.55 20.49-13.76 22.04-0.08 0.1-6.27 2.3-9.09 3.99-1.12 0.67-1.74 2.12-1.9 3.62l-2.46 20.8c-0.64 4.1 1.7 5.82 5.37 5.82h91.51c2.8 0 5.1-0.8 5.1-5.81v-19.79c-0.01-0.43-0.05-0.84-0.13-1.25z" fill="url(#a)"/><defs><path id="d" d="m97.35-88.98c-0.91-4.32-4.3-20.06-5.86-27.34-0.47-2.21-2.11-3.74-3.99-3.74-5.36 0-15.39 0.01-16.6 0.01h-44.08c-0.61 0-2.56-0.01-4.11 1.72-4.71 5.27-12.55 20.48-13.76 22.02-0.08 0.1-6.27 2.26-9.09 3.94-1.12 0.67-1.74 2.12-1.9 3.61l-2.47 20.76c-0.64 4.09 1.7 5.8 5.37 5.8h91.51c2.8 0 5.1-0.79 5.1-5.8v-19.74c0-0.42-0.04-0.84-0.12-1.24z"/></defs><clipPath><use xlink:href="#d"/></clipPath><g opacity=".2"><path d="m87.5-117.08c0.36 0 0.87 0.53 1.05 1.38 1.46 6.78 4.94 23.03 5.86 27.4 0.04 0.2 0.06 0.41 0.06 0.63v19.79c0 2.81-0.49 2.81-2.1 2.81h-91.51c-1.3 0-2.02-0.29-2.25-0.56s-0.3-0.95-0.16-1.8l0.02-0.1 2.47-20.84c0.08-0.8 0.36-1.28 0.46-1.36 1.87-1.12 5.83-2.66 7.51-3.31 1.46-0.57 1.86-0.72 2.39-1.39 0.5-0.63 1.28-2 2.99-5.03 2.85-5.03 7.61-13.46 10.65-16.87 0.57-0.64 1.22-0.72 1.87-0.72h44.08c0.75 0 4.89 0 9.21-0.01l7.4-0.02m0-3c-5.36 0-15.39 0.01-16.6 0.01h-44.08-0.02c-0.63 0-2.55 0.01-4.08 1.73-4.72 5.27-12.56 20.48-13.77 22.03-0.08 0.1-6.27 2.3-9.09 3.99-1.12 0.67-1.74 2.12-1.9 3.62l-2.46 20.8c-0.64 4.1 1.7 5.82 5.37 5.82h91.51c2.8 0 5.1-0.8 5.1-5.81v-19.79c0-0.42-0.04-0.84-0.13-1.24-0.91-4.33-4.3-20.11-5.86-27.41-0.48-2.22-2.12-3.75-3.99-3.75z" fill="#eee"/></g><path d="m101.67 53.67c0-20.77-16.9-37.67-37.67-37.67s-37.67 16.9-37.67 37.67v32.58c0 20.77 16.9 37.67 37.67 37.67s37.67-16.9 37.67-37.67v-32.58z" fill="#E0E0E0"/><path d="m7.42 63.06c-1.15 0-2.24-0.66-2.74-1.78-0.68-1.51 0-3.28 1.51-3.96 6.84-3.06 11.08-8.96 11.08-16.72l0.02-2.6v-0.13c0-20.91 11.3-33.9 29.5-33.9 16.06 0 23.25 12.9 23.25 25.68 0 1.66-1.34 3-3 3s-3-1.34-3-3c0-18.73-14.37-19.68-17.25-19.68-21.21 0-23.5 19.51-23.5 27.9l-0.02 2.76c0 10.13-5.61 18.13-14.63 22.17-0.39 0.17-0.81 0.26-1.22 0.26z" fill="#424242"/><g opacity=".2"><path d="m46.79 4.97c15.37 0 22.25 12.4 22.25 24.68 0 1.1-0.9 2-2 2s-2-0.9-2-2c0-19.69-15.2-20.68-18.25-20.68-7.37 0-24.5 2.82-24.5 28.89l-0.02 2.76c0 9.52-5.12 17.26-14.04 21.26-0.25 0.12-0.53 0.18-0.81 0.18-0.79 0-1.51-0.46-1.83-1.18-0.22-0.49-0.23-1.03-0.04-1.53s0.56-0.89 1.05-1.11c7.42-3.32 11.67-9.75 11.67-17.63l0.02-2.6v-0.13c0-20.3 10.92-32.91 28.5-32.91m0-1c-18.2 0-29.5 12.99-29.5 33.9v0.13l-0.02 2.6c0 7.76-4.25 13.66-11.08 16.72-1.51 0.68-2.19 2.45-1.51 3.96 0.5 1.11 1.59 1.78 2.74 1.78 0.41 0 0.83-0.08 1.22-0.26 9.03-4.04 14.63-12.04 14.63-22.17l0.02-2.76c0-8.39 2.29-27.9 23.5-27.9 2.88 0 17.25 0.95 17.25 19.68 0 1.66 1.34 3 3 3s3-1.34 3-3c0-12.78-7.19-25.68-23.25-25.68z" fill="#eee"/></g><path d="m-105.41 79.57c7.85-3.52 12.86-11.23 12.86-20.28l0.02-1.75v-19.67c0-17.58 8.38-30.9 26.5-30.9 15.38 0 20.25 12.94 20.25 22.68" fill="none" stroke="#424242" stroke-linecap="round" stroke-linejoin="round" stroke-miterlimit="10" stroke-width="6"/><linearGradient id="e" x1="64" x2="64" y1="16.15" y2="123.84" gradientUnits="userSpaceOnUse"><stop stop-color="#E0E0E0" offset="0"/><stop stop-color="#9E9E9E" offset="1"/></linearGradient><path d="m101.67 53.67c0-20.77-16.9-37.67-37.67-37.67s-37.67 16.9-37.67 37.67v32.58c0 20.77 16.9 37.67 37.67 37.67s37.67-16.9 37.67-37.67v-32.58z" fill="url(#e)"/><path d="m198.38 3.83c-23.11 0-42 18.8-42 41.92v10.25h84v-10.25c0-23.11-18.89-41.92-42-41.92z" fill="#757575"/><path d="m144.04-77.21h-0.04v52.16h42v-10.25c0-23.11-18.85-41.91-41.96-41.91z" fill="#757575"/><path d="m147-14.12v52.12h4v-52.12c-0.66-0.03-1.33-0.05-2-0.05s-1.34 0.02-2 0.05z" fill="#757575"/><path d="M64.08,16c-3.75,0-7.19,0.56-10.78,1.59V66.5c0,5.97,4.82,10.8,10.78,10.8 s10.78-4.84,10.78-10.8V17.59C71.27,16.56,67.83,16,64.08,16z" fill="#757575" opacity=".6"/><path d="m64 52.06c-3.97 0-7.19-3.22-7.19-7.19v-10.87c0-3.97 3.22-7.19 7.19-7.19s7.19 3.22 7.19 7.19v10.87c0 3.98-3.22 7.19-7.19 7.19z" fill="#424242"/><g opacity=".2"><path d="m64 19c19.12 0 34.67 15.55 34.67 34.67v32.58c0 19.12-15.55 34.67-34.67 34.67s-34.67-15.55-34.67-34.67v-32.58c0-19.12 15.55-34.67 34.67-34.67m0-3c-20.77 0-37.67 16.9-37.67 37.67v32.58c0 20.77 16.9 37.67 37.67 37.67s37.67-16.9 37.67-37.67v-32.58c0-20.77-16.9-37.67-37.67-37.67z" fill="#424242"/></g></svg>

<?xml version="1.0" encoding="utf-8"?>
<!-- Generator: Adobe Illustrator 24.0.3, SVG Export Plug-In . SVG Version: 6.00 Build 0)  -->
<svg version="1.1" id="Layer_1" xmlns="http://www.w3.org/2000/svg" xmlns:xlink="http://www.w3.org/1999/xlink" x="0px" y="0px"
	 viewBox="0 0 128 128" style="enable-background:new 0 0 128 128;" xml:space="preserve">
<path style="fill:#E0E0E0;" d="M101.7,53.7C101.7,32.9,84.8,16,64,16S26.3,32.9,26.3,53.7v32.6c0,20.8,16.9,37.7,37.7,37.7
	s37.7-16.9,37.7-37.7V53.7z"/>
<path style="fill:#504F4F;" d="M7.4,63.1c-1.2,0-2.2-0.7-2.7-1.8c-0.7-1.5,0-3.3,1.5-4c6.8-3.1,11.1-9,11.1-16.7V38v-0.1
	C17.3,17,28.6,4,46.8,4C62.8,4,70,16.9,70,29.7c0,1.7-1.3,3-3,3s-3-1.3-3-3C64,10.9,49.7,10,46.8,10c-21.2,0-23.5,19.5-23.5,27.9
	v2.8c0,10.1-5.6,18.1-14.6,22.2C8.2,63,7.8,63.1,7.4,63.1z"/>
<linearGradient id="SVGID_1_" gradientUnits="userSpaceOnUse" x1="64" y1="730.0398" x2="64" y2="837.7298" gradientTransform="matrix(1 0 0 1 0 -713.8898)">
	<stop  offset="0" style="stop-color:#E0E0E0"/>
	<stop  offset="1" style="stop-color:#9E9E9E"/>
</linearGradient>
<path style="fill:url(#SVGID_1_);" d="M101.7,53.7C101.7,32.9,84.8,16,64,16S26.3,32.9,26.3,53.7v32.6c0,20.8,16.9,37.7,37.7,37.7
	s37.7-16.9,37.7-37.7V53.7z"/>
<path style="opacity:0.6;fill:#757575;enable-background:new    ;" d="M64.1,16c-3.8,0-7.2,0.6-10.8,1.6v48.9
	c0,6,4.8,10.8,10.8,10.8s10.8-4.8,10.8-10.8V17.6C71.3,16.6,67.8,16,64.1,16z"/>
<path style="fill:#504F4F;" d="M64,52.1c-4,0-7.2-3.2-7.2-7.2V34c0-4,3.2-7.2,7.2-7.2s7.2,3.2,7.2,7.2v10.9
	C71.2,48.9,68,52.1,64,52.1z"/>
</svg>
